icons/square-16.svg

<svg xmlns="http://www.w3.org/2000/svg" width="16" height="16" viewBox="0 0 16 16">
  <defs/>
  <path d="M4,5.75 C4,4.784 4.784,4 5.75,4 L10.25,4 C11.216,4 12,4.784 12,5.75 L12,10.25 C12,11.216 11.216,12 10.25,12 L5.75,12 C4.784,12 4,11.216 4,10.25 Z M5.75,5.5 C5.612,5.5 5.5,5.612 5.5,5.75 L5.5,10.25 C5.5,10.388 5.612,10.5 5.75,10.5 L10.25,10.5 C10.388,10.5 10.5,10.388 10.5,10.25 L10.5,5.75 C10.5,5.612 10.388,5.5 10.25,5.5 Z"/>
</svg>

<svg xmlns="http://www.w3.org/2000/svg" width="16" height="16" viewBox="0 0 16 16"><path fill-rule="evenodd" d="M4 5.75C4 4.784 4.784 4 5.75 4h4.5c.966 0 1.75.784 1.75 1.75v4.5A1.75 1.75 0 0110.25 12h-4.5A1.75 1.75 0 014 10.25v-4.5zm1.75-.25a.25.25 0 00-.25.25v4.5c0 .138.112.25.25.25h4.5a.25.25 0 00.25-.25v-4.5a.25.25 0 00-.25-.25h-4.5z"/></svg>
